!!!!SEGMENT: pl-sa--575-a-ix-55--003_anonim--sonatta.krn
!!!cenid: 18xx:617
!!!COM: Anonim
!!!COM-rismid: pe30004985
!!!CDT:
!!!CNT:
!!!OTL: Sonatta
!!!PDT:
!!!AGN: Secular; Sonata
!!!SMS-siglum: PL-SA
!!!SMS-shelfmark: 575/A IX 55
!!!SMS-shelfwork: 003 W
!!!SMS-variant:
!!!SMS-altvar:
!!!NIFC-rismid: 1001077561
!!!URL-scan: http://bc.bdsandomierz.pl/dlibra/publication/1381/edition/1349/content
!!!ONB-nifc: Str. 2
**kern	**kern
*part2	*part1
*staff2	*staff1
*I"Piano	*
*clefG2	*clefG2
*k[]	*k[]
*M2/4	*M2/4
*>[A,A,B,B]	*>[A,A,B,B]
=1	=1
*>A	*>A
!	!LO:TX:b:i:t=Sonatta
16c/LL	4cc\
16g/	.
16e/	.
16g/JJ	.
*rep	*
16c/LL	8r
16g/	.
16e/	32gg\LLL
.	32ff\
16g/JJ	32ee\
.	32dd\JJJ
*Xrep	*
=2	=2
*rep	*
16c/LL	4cc\
16g/	.
16e/	.
16g/JJ	.
*Xrep	*
*rep	*
16c/LL	8r
16g/	.
16e/	16cc\LL
16g/JJ	16ee\JJ
*Xrep	*
=3	=3
16B/LL	4dd\
16g/	.
16d/	.
16g/JJ	.
*rep	*
16B/LL	8r
16g/	.
16d/	32aa\LLL
.	32gg\
16g/JJ	32ff\
.	32ee\JJJ
*Xrep	*
=4	=4
*rep	*
16B/LL	4dd\
16g/	.
16d/	.
16g/JJ	.
*Xrep	*
*rep	*
16B/LL	8r
16g/	.
16d/	16dd\LL
16g/JJ	16ff\JJ
*Xrep	*
=5	=5
16c/LL	4ee\
16g/	.
16e/	.
16g/	.
16B/	8r
16g/	.
16d/	16dd\LL
16g/JJ	16ff\JJ
=6	=6
*rep	*
16c/LL	4ee\
16g/	.
16e/	.
16g/	.
16B/	8r
16g/	.
16d/	16dd\LL
16g/JJ	16ff\JJ
*Xrep	*
=7	=7
8c/L	16ee\LL
.	16cc\
8f/	16ff\
.	16dd\
8g/	16dd\
.	16cc\
8G/J	16cc\
.	16b\JJ
*clefF4	*
=8	=8
8c\L	4cc\
8G\J	.
4C/	4r
=9	=9
16G\LL	4dd\
16d\	.
16B\	.
16d\	.
16F#X\	32dd\LLL
.	32ee\
16d\	32ff#X\
.	32gg\JJJ
16A\	32aa\LLL
.	32gg\
16d\JJ	32ff#\
.	32ee\JJJ
=10	=10
*rep	*
16G\LL	4dd\
16d\	.
16B\	.
16d\	.
16F#X\	8.cc\L
16d\	.
16A\	.
16d\JJ	32b\LL
.	32cc\JJJ
*Xrep	*
=11	=11
*rep	*
16G\LL	4dd\
16d\	.
16B\	.
16d\	.
16F#X\	32dd\LLL
.	32ee\
16d\	32ff#X\
.	32gg\JJJ
16A\	32aa\LLL
.	32gg\
16d\JJ	32ff#\
.	32ee\JJJ
*Xrep	*
=12	=12
*rep	*
16G\LL	4dd\
16d\	.
16B\	.
16d\	.
16F#X\	8.cc\L
16d\	.
16A\	.
16d\JJ	32b\LL
.	32cc\JJJ
*Xrep	*
=13	=13
16G\LL	4b\
16d\	.
16B\	.
16d\JJ	.
*rep	*
16G\LL	8r
16d\	.
16B\	8dd\
16d\JJ	.
*Xrep	*
=14	=14
16G\LL	4ee\
16e\	.
16c\	.
16e\JJ	.
*rep	*
16G\LL	16ee\LL
16e\	16gg\
16c\	16ccc\
16e\JJ	16eee\JJ
*Xrep	*
=15	=15
16G\LL	4dd\
16d\	.
16B\	.
16d\JJ	.
*rep	*
16G\LL	16dd\LL
16d\	16gg\
16B\	16bb\
16d\JJ	16ddd\JJ
*Xrep	*
!!LO:LB:g=original
=16	=16
16D\LL	8dddL 8bb\
16d\	.
16D\	8ccc 8aa\
16d\JJ	.
*rep	*
16D\LL	8bb 8gg\
16d\	.
16D\	8aaJ 8ff#X\
16d\JJ	.
*Xrep	*
=17	=17
16G\LL	4bb 4gg\
16d\	.
16B\	.
16d\JJ	.
*rep	*
16G\LL	8r
16d\	.
16B\	8dd\
16d\JJ	.
*Xrep	*
=18	=18
.	8qdd/
16G\LL	8ee\L
16e\	.
.	8qgg#X/
16c\	8aa\
16e\JJ	.
.	8qbb/
*rep	*
16G\LL	8ccc\
16e\	.
.	8qddd#X/
16c\	8eee\J
16e\JJ	.
*Xrep	*
=19	=19
.	8qcc#X/
16G\LL	8dd\L
16d\	.
.	8qff#X/
16B\	8gg\
16d\JJ	.
.	8qaa#X/
*rep	*
16G\LL	8bb\
16d\	.
.	8qccc#X/
16B\	8ddd\J
16d\JJ	.
*Xrep	*
=20	=20
16D\LL	8dddL 8bb\
16d\	.
16D\	8ccc 8aa\
16d\JJ	.
*rep	*
16D\LL	8bb 8gg\
16d\	.
16D\	8aaJ 8ff#X\
16d\JJ	.
*Xrep	*
=21	=21
16G\LL	4bb 4gg\
16d\	.
16B\	.
16d\	.
16F#X\	8r
16d\	.
16A\	16aa\LL
16d\JJ	16ccc\JJ
=22	=22
*rep	*
16G\LL	4bb 4gg\
16d\	.
16B\	.
16d\	.
16F#X\	8r
16d\	.
16A\	16aa\LL
16d\JJ	16ccc\JJ
*Xrep	*
=23	=23
*rep	*
16G\LL	4bb 4gg\
16d\	.
16B\	.
16d\	.
16F#X\	8r
16d\	.
16A\	16aa\LL
16d\JJ	16ccc\JJ
*Xrep	*
=24	=24
!LO:TX:t=P:problem:mixed beam	!
8G\L	16bb\LL
.	16gg\
8c\	16ccc\
.	16aa\JJ
8d\	16aa\LL
.	16gg\
8D/J	16gg\
.	16ff#X\JJ
=25	=25
16G\LL	8gg\L
16g\	.
16G\	8dd 8b\
16g\JJ	.
*rep	*
16G\LL	8ee 8cc\
16g\	.
16G\	8ff#XJ 8dd\
16g\JJ	.
*Xrep	*
=26	=26
*rep	*
16G\LL	8ggL 8b\
16g\	.
16G\	8dd 8b\
16g\JJ	.
*Xrep	*
*rep	*
16G\LL	8ee 8cc\
16g\	.
16G\	8ff#XJ 8dd\
16g\JJ	.
*Xrep	*
=27	=27
*rep	*
16G\LL	8ggL 8b\
16g\	.
16G\	8ggJ 8b\
16g\JJ	.
*Xrep	*
4G\	4gg 4b\
=28:|!|:	=28:|!|:
*>B	*>B
.	8qf#X/
16G\LL	4g\
16d\	.
16B\	.
16d\JJ	.
*rep	*
16G\LL	8r
16d\	.
16B\	32dd\LLL
.	32cc\
16d\JJ	32b\
.	32a\JJJ
*Xrep	*
=29	=29
*rep	*
16G\LL	4g/
16d\	.
16B\	.
16d\JJ	.
*Xrep	*
*rep	*
16G\LL	8r
16d\	.
16B\	16g\LL
16d\JJ	16b\JJ
*Xrep	*
=30	=30
16F#X\LL	4a/
16d\	.
16A\	.
16d\JJ	.
*rep	*
16F#\LL	8r
16d\	.
16A\	32ee\LLL
.	32dd\
16d\JJ	32cc\
.	32b\JJJ
*Xrep	*
!!LO:LB:g=original
=31	=31
16F#X\LL	4a/
16d\	.
16A\	.
16d\JJ	.
*rep	*
16F#\LL	8r
16d\	.
!	!LO:N:vis=8
16A\	16a/LL
!	!LO:N:vis=8
16d\JJ	16cc/JJ
*Xrep	*
=32	=32
16G\LL	4b/
16d\	.
16B\	.
16d\	.
16F#X\	8r
16d\	.
!	!LO:N:vis=8
16A\	16a/LL
!	!LO:N:vis=8
16d\JJ	16cc/JJ
=33	=33
*rep	*
16G\LL	4b/
16d\	.
16B\	.
16d\	.
16F#X\	8r
16d\	.
16A\	16a/LL
16d\JJ	16cc/JJ
*Xrep	*
=34	=34
!LO:TX:t=P:problem:mixed beam	!
8G\L	16b/LL
.	16g/
8c\	16cc/
.	16a/
8d\	16a/
.	16g/
8D/J	16g/
.	16f#X/JJ
=35	=35
4G\	4g/
4r	8r
.	8fff\
=36	=36
2G#X 2GG/	4fff\
*	*Xtuplet
.	24ddd\LL
.	24fff\
.	24ddd\
.	24bb\
.	24ddd\
.	24bb\JJ
=37	=37
2r	24gg#X\LL
.	24bb\
.	24gg#\
.	24ee\
.	24gg#\
.	24ee\JJ
.	24dd\LL
.	24ff\
.	24dd\
.	24b\
.	24dd\
.	24b\JJ
=38	=38
2r	24g#X\LL
.	24b\
.	24g#\
.	24e#X\
.	24g#\
.	24e#\JJ
.	24d\LL
.	24f\
.	24d\JJ
.	24B/LL
.	24d/
.	24B/JJ
=39	=39
32G#X\LLL	16ryy
32A\JJJ	.
16ryy	32B</LLL
.	32c</JJJ
32B\LLL	16ryy
32c\JJJ	.
16ryy	32d#X/LLL
.	32e/JJJ
32d>\LLL	16ryy
32e>\JJJ	.
16ryy	32g#X/LLL
.	32a/JJJ
32g>\LLL	16ryy
32a>\JJJ	.
16ryy	32b/LLL
.	32cc/JJJ
=40	=40
32b>\LLL	16ryy
32cc>\JJJ	.
16ryy	32dd#X/LLL
.	32ee/JJJ
32dd>\LLL	16ryy
32ee>\JJJ	.
16ryy	32gg#X/LLL
.	32aa/JJJ
32gg>\LLL	16ryy
32aa>\JJJ	.
16ryy	32bb/LLL
.	32ccc/JJJ
32bb>\LLL	16ryy
32ccc>\JJJ	.
16ryy	32ddd#X/LLL
.	32eee/JJJ
!!LO:LB:g=original
=41	=41
2F#X 2FF#X/	24ccc\LL
.	24eee\
.	24ccc\
.	24aa\
.	24ccc\
.	24aa\JJ
.	24ff#X\LL
.	24aa\
.	24ff#\
.	24cc\
.	24ff#\
.	24cc\JJ
=42	=42
2r	24cc\LL
.	24ee\
.	24cc\
.	24a\
.	24cc\
.	24a\JJ
.	24f#X/LL
.	24a/
.	24f#/
.	24c/
.	24f#/
.	24c/JJ
=43	=43
32ryy	32e/
32G\LLL	8ryy
32A\	.
32B\JJJ	.
32c\	.
8ryy	32d/LLL
.	32e/
.	32f#X/JJJ
.	32g/
32d>\LLL	8ryy
32e>\	.
32f>\JJJ	.
32g>\	.
16.ryy	32a/LLL
.	32b/
.	32cc/JJJ
=44	=44
32ryy	32dd/
32g>\LLL	8ryy
32a>\	.
32b>\JJJ	.
32cc>\	.
8ryy	32dd/LLL
.	32ee/
.	32ff/JJJ
.	32gg/
32dd>\LLL	8ryy
32ee>\	.
32ff>\JJJ	.
32gg>\	.
16.ryy	32aa/LLL
.	32bb/
.	32ccc/JJJ
=45	=45
2r	4ddd\
.	4r
=46	=46
16G\LL	8gg 8ee\
16g\	.
16G\	8r
16g\JJ	.
*rep	*
16G\LL	8gg 8ee\
16g\	.
16G\	8r
16g\JJ	.
*Xrep	*
=47	=47
*rep	*
16G\LL	16eee\LL
16g\	16ddd 16bb\
16G\	16ccc 16aa\
16g\JJ	16bbJJ 16gg\
*Xrep	*
*rep	*
16G\LL	16aaLL 16ff\
16g\	16gg 16ee\
16G\	16ff 16dd\
16g\JJ	16eeJJ 16cc\
*Xrep	*
=48	=48
*rep	*
16G\LL	8ff 8dd\
16g\	.
16G\	8r
16g\JJ	.
*Xrep	*
*rep	*
16G\LL	8ff 8dd\
16g\	.
16G\	8r
16g\JJ	.
*Xrep	*
=49	=49
*rep	*
16G\LL	16dddLL 16bb\
16g\	16ccc 16aa\
16G\	16bb 16gg\
16g\JJ	16aaJJ 16ff\
*Xrep	*
*rep	*
16G\LL	16ggLL 16ee\
16g\	16ff 16dd\
16G\	16ee 16cc\
16g\JJ	16ddJJ 16b\
*Xrep	*
=50	=50
*rep	*
16G\LL	8ee 8cc\
16g\	.
16G\	8r
16g\JJ	.
*Xrep	*
*rep	*
16G\LL	8ee 8cc\
16g\	.
16G\	8r
16g\JJ	.
*Xrep	*
=51rep	=51
16IG\LL	16cccLL 16aa\
16g\	16bb 16gg\
16G\	16aa 16ff\
16g\JJ	16ggJJ 16ee\
*Xrep	*
*rep	*
16G\LL	16ffLL 16dd\
16g\	16ee 16cc\
16G\	16dd 16b\
16g\JJ	16ccJJ 16a\
*Xrep	*
!!LO:LB:g=original
=52	=52
16G\LL	4dd 4b\
16g\	.
16d\	.
16B\JJ	.
8G\	8r
8r	8g/
=53	=53
*clefG2	*
16c/LL	4cc\
16g/	.
16e/	.
16g/JJ	.
*rep	*
16c/LL	8r
16g/	.
16e/	32gg\LLL
.	32ff\
16g/JJ	32ee\
.	32dd\JJJ
*Xrep	*
=54	=54
*rep	*
16c/LL	4cc\
16g/	.
16e/	.
16g/JJ	.
*Xrep	*
*rep	*
16c/LL	8r
16g/	.
16e/	16cc\LL
16g/JJ	16ee\JJ
*Xrep	*
=55	=55
16B/LL	4dd\
16g/	.
16d/	.
16g/JJ	.
*rep	*
16B/LL	8r
16g/	.
16d/	32aa\LLL
.	32gg\
16g/JJ	32ff\
.	32ee\JJJ
*Xrep	*
=56	=56
*rep	*
16B/LL	4dd\
16g/	.
16d/	.
16g/JJ	.
*Xrep	*
*rep	*
16B/LL	8r
16g/	.
16d/	16dd\LL
16g/JJ	16ff\JJ
*Xrep	*
=57	=57
16c/LL	4ee\
16g/	.
16e/	.
16g/	.
16B/	8r
16g/	.
16d/	16dd\LL
16g/JJ	16ff\JJ
=58	=58
*rep	*
16c/LL	4ee\
16g/	.
16e/	.
16g/	.
16B/	8r
16g/	.
16d/	16dd\LL
16g/JJ	16ff\JJ
*Xrep	*
=59	=59
8c/L	16ee\LL
.	16cc\
8f/	16ff\
.	16dd\
8g/	16dd\
.	16cc\
8G/J	16cc\
.	16b\JJ
*clefF4	*
=60	=60
16C\LL	4cc\
16c\	.
16G\	.
16E\JJ	.
8C/	4r
8r	.
=61	=61
16E\LL	16gg\LL
16c\	16ff\
16G\	16ee\
16c\JJ	16dd\JJ
*rep	*
16E\LL	16cc\LL
16c\	16b-X\
16G\	16a\
16c\JJ	16g#X\JJ
*Xrep	*
=62	=62
16F\LL	8a\
16c\	.
16A\	8r
16c\JJ	.
*rep	*
16F\LL	8a\
16c\	.
16A\	8r
16c\JJ	.
*Xrep	*
=63	=63
16F#X\LL	16aa\LL
16d\	16gg\
16A\	16ff#X\
16d\JJ	16ee\JJ
*rep	*
16F#\LL	16dd\LL
16d\	16cc\
16A\	16b\
16d\JJ	16a#X\JJ
*Xrep	*
=64	=64
16G\LL	8b\
16d\	.
16B\	8r
16d\JJ	.
*rep	*
16G\LL	8b\
16d\	.
16B\	8r
16d\JJ	.
*Xrep	*
=65	=65
16BB\LL	16ddd\LL
16G\	16ccc\
16D\	16bb\
16G\JJ	16aa\JJ
*rep	*
16BB\LL	16gg\LL
16G\	16ff\
16D\	16ee\
16G\JJ	16dd\JJ
*Xrep	*
=66	=66
.	8qdd#X/
16C\LL	4ee\
16G\	.
16E\	.
16G\JJ	.
*rep	*
16C\LL	8r
16G\	.
16E\	8g/
16G\JJ	.
*Xrep	*
=67	=67
16C\LL	4a\
16A\	.
16F\	.
16A\JJ	.
*rep	*
16C\LL	16a\LL
16A\	16cc\
16F\	16ff\
16A\JJ	16aa\JJ
*Xrep	*
=68	=68
16C\LL	4g\
16G\	.
16E\	.
16G\JJ	.
*rep	*
16C\LL	16g\LL
16G\	16cc\
16E\	16ee\
16G\JJ	16gg\JJ
*Xrep	*
!!LO:LB:g=original
=69	=69
16G\LL	8ggL 8ee\
16g\	.
16G\	8ff 8dd\
16g\JJ	.
*rep	*
16G\LL	8ee 8cc\
16g\	.
16G\	8ddJ 8b\
16g\JJ	.
*Xrep	*
=70	=70
16C\LL	4ee 4cc\
16G\	.
16E\	.
16G\JJ	.
*rep	*
16C\LL	8r
16G\	.
16E\	8g/
16G\JJ	.
*Xrep	*
=71	=71
.	8qg#X/
16C\LL	8a\L
16A\	.
16F\	8dd\
16A\JJ	.
*rep	*
16C\LL	8ff\
16A\	.
16F\	8aa\J
16A\JJ	.
*Xrep	*
=72	=72
.	8qf#X/
16C\LL	8g\L
16G\	.
.	8qb/
16E\	8cc\
16G\JJ	.
.	8qdd/
*rep	*
16C\LL	8ee\
16G\	.
.	8qff/
16E\	8gg\J
16G\JJ	.
*Xrep	*
=73	=73
16G\LL	8ggL 8ee\
16g\	.
16G\	8ff 8dd\
16g\JJ	.
*rep	*
16G\LL	8ee 8cc\
16g\	.
16G\	8ddJ 8b\
16g\JJ	.
*Xrep	*
*clefG2	*
=74	=74
!LO:TX:a:t=P:problem:nie wyświetla się klucz	!
16c/LL	4ee 4cc\
16g/	.
16e/	.
16g/	.
16B/	8r
16g/	.
16d/	16dd\LL
16g/JJ	16ff\JJ
=75	=75
16c/LL	4ee 4cc\
16g/	.
16e/	.
16g/	.
16B/	8r
16g/	.
16d/	16dd\LL
16g/JJ	16ff\JJ
=76	=76
*rep	*
16c/LL	4ee 4cc\
16g/	.
16e/	.
16g/	.
16B/	8r
16g/	.
16d/	16dd\LL
16g/JJ	16ff\JJ
*Xrep	*
=77	=77
8c/L	16ee\LL
.	16cc\
8f/	16ff\
.	16dd\
8g/	16dd\
.	16cc\
8G/J	16cc\
.	16b\JJ
*clefF4	*
=78	=78
16C\LL	8cc/L
16c\	.
16C\	8g 8e/
16c\JJ	.
*rep	*
16C\LL	8a 8f/
16c\	.
16C\	8bJ 8f/
16c\JJ	.
*Xrep	*
=79	=79
*rep	*
16C\LL	8ccL 8e/
16c\	.
16C\	8g 8e/
16c\JJ	.
*Xrep	*
*rep	*
16C\LL	8a 8f/
16c\	.
16C\	8bJ 8f/
16c\JJ	.
*Xrep	*
=80	=80
*rep	*
16C\LL	8ccL 8e/
16c\	.
16C\	8ccJ 8e/
16c\JJ	.
*Xrep	*
!	!LO:TX:b:i:t=Fine
4C/	4cc 4e/
=:|!;;	=:|!;;
*-	*-
!!!system-decoration: {s1,s2}
!!!RDF**kern: > = above
!!!RDF**kern: < = below
!!!ENC: Marta Lawrence
!!!END: 2020-12-12
!!!ENC: Mateusz Solarz
!!!END: 2020-06-19
